symbols/web/local_taxi/materialsymbolsrounded/local_taxi_wght100fill1_24px.svg

<svg xmlns="http://www.w3.org/2000/svg" height="24" width="24"><path d="M4.65 19.7q-.15 0-.25-.1t-.1-.25V12.2l1.95-5.55q.05-.175.2-.263.15-.087.35-.087h-.05 3.45v-.65q0-.325.213-.538.212-.212.537-.212h2.2q.325 0 .538.212.212.213.212.538v.65h3.4q.15 0 .275.1.125.1.175.25l1.95 5.55v7.15q0 .15-.1.25t-.25.1q-.15 0-.25-.1t-.1-.25V17.7H5v1.65q0 .15-.1.25t-.25.1Zm.65-8.2h13.4L17.1 7H6.9Zm2.1 4.1q.425 0 .713-.288.287-.287.287-.712t-.287-.713Q7.825 13.6 7.4 13.6t-.712.287q-.288.288-.288.713t.288.712q.287.288.712.288Zm9.2 0q.425 0 .712-.288.288-.287.288-.712t-.288-.713q-.287-.287-.712-.287t-.712.287q-.288.288-.288.713t.288.712q.287.288.712.288Z"/></svg>

<svg xmlns="http://www.w3.org/2000/svg" height="24" width="24"><path d="M4.65 19.7Q4.5 19.7 4.4 19.6Q4.3 19.5 4.3 19.35V12.2L6.25 6.65Q6.3 6.475 6.45 6.387Q6.6 6.3 6.8 6.3H6.75H10.2V5.65Q10.2 5.325 10.413 5.112Q10.625 4.9 10.95 4.9H13.15Q13.475 4.9 13.688 5.112Q13.9 5.325 13.9 5.65V6.3H17.3Q17.45 6.3 17.575 6.4Q17.7 6.5 17.75 6.65L19.7 12.2V19.35Q19.7 19.5 19.6 19.6Q19.5 19.7 19.35 19.7Q19.2 19.7 19.1 19.6Q19 19.5 19 19.35V17.7H5V19.35Q5 19.5 4.9 19.6Q4.8 19.7 4.65 19.7ZM5.3 11.5H18.7L17.1 7H6.9ZM7.4 15.6Q7.825 15.6 8.113 15.312Q8.4 15.025 8.4 14.6Q8.4 14.175 8.113 13.887Q7.825 13.6 7.4 13.6Q6.975 13.6 6.688 13.887Q6.4 14.175 6.4 14.6Q6.4 15.025 6.688 15.312Q6.975 15.6 7.4 15.6ZM16.6 15.6Q17.025 15.6 17.312 15.312Q17.6 15.025 17.6 14.6Q17.6 14.175 17.312 13.887Q17.025 13.6 16.6 13.6Q16.175 13.6 15.888 13.887Q15.6 14.175 15.6 14.6Q15.6 15.025 15.888 15.312Q16.175 15.6 16.6 15.6Z"/></svg>
